X: 3221
T: BANGOR REGATTA
%R: jig
B: James Kerr "Merry Melodies" v.3 p.25 #221
Z: 2016 John Chambers <jc:trillian.mit.edu>
M: 6/8
L: 1/8
K: A
|:\
vEAc ue2uf | ecA a2f |\
ecA EAc |[1 dBB B2B :|[2 BAA A3 |:\
efe a2g | bag fga |\
ecA EAc |[1 dBB B2B :|[2 BAA A3 |]

%%sep 1 1 500
%%sep 1 1 500

